src/asset/24px/plus-circle.svg

<svg width="24" height="24" viewBox="0 0 24 24" fill="none" xmlns="http://www.w3.org/2000/svg">
<path fill-rule="evenodd" clip-rule="evenodd" d="M12 3.99973C7.58172 3.99973 4 7.58145 4 11.9997C4 16.418 7.58172 19.9997 12 19.9997C16.4183 19.9997 20 16.418 20 11.9997C20 7.58145 16.4183 3.99973 12 3.99973ZM2 11.9997C2 6.47688 6.47715 1.99973 12 1.99973C17.5228 1.99973 22 6.47688 22 11.9997C22 17.5226 17.5228 21.9997 12 21.9997C6.47715 21.9997 2 17.5226 2 11.9997ZM12 6.99973C12.5523 6.99973 13 7.44744 13 7.99973V10.9997H16C16.5523 10.9997 17 11.4474 17 11.9997C17 12.552 16.5523 12.9997 16 12.9997H13V15.9997C13 16.552 12.5523 16.9997 12 16.9997C11.4477 16.9997 11 16.552 11 15.9997V12.9997H8C7.44772 12.9997 7 12.552 7 11.9997C7 11.4474 7.44772 10.9997 8 10.9997H11V7.99973C11 7.44744 11.4477 6.99973 12 6.99973Z" fill="currentColor"/>
</svg>

<svg width="24" height="24" fill="none" xmlns="http://www.w3.org/2000/svg"><path fill-rule="evenodd" clip-rule="evenodd" d="M12 4a8 8 0 100 16 8 8 0 000-16zM2 12C2 6.477 6.477 2 12 2s10 4.477 10 10-4.477 10-10 10S2 17.523 2 12zm10-5a1 1 0 011 1v3h3a1 1 0 110 2h-3v3a1 1 0 11-2 0v-3H8a1 1 0 110-2h3V8a1 1 0 011-1z" fill="currentColor"/></svg>
